src/assets/images/realtime/realtimekit/web/components-gallery/rtk-spinner.svg

<svg xmlns="http://www.w3.org/2000/svg" xmlns:xlink="http://www.w3.org/1999/xlink" width="400" height="300" fill="none" viewBox="0 0 400 300"><g clip-path="url(#clip0_9781_42491)"><path fill="#fff" d="M0 0h400v300H0z"/><path fill="url(#pattern0_9781_42491)" d="M0 4.21A4.21 4.21 0 0 1 4.21 0h391.58A4.21 4.21 0 0 1 400 4.21v291.58a4.21 4.21 0 0 1-4.211 4.211H4.211A4.21 4.21 0 0 1 0 295.789z" style="mix-blend-mode:darken"/><path fill="#f5f5f7" fill-rule="evenodd" d="M85.5 176c14.083 0 25.5-11.417 25.5-25.5S99.583 125 85.5 125 60 136.417 60 150.5 71.417 176 85.5 176m0 7c17.949 0 32.5-14.551 32.5-32.5S103.449 118 85.5 118C67.55 118 53 132.551 53 150.5S67.55 183 85.5 183" clip-rule="evenodd"/><path fill="#2160fd" fill-rule="evenodd" d="M85.5 124.99a25.51 25.51 0 0 1 24.673 19.027 25.515 25.515 0 0 1-12.133 28.699 25.516 25.516 0 0 1-30.84-4.442 25.514 25.514 0 0 1-3.54-30.956l-5.984-3.612a32.5 32.5 0 0 0-4.465 20.487 32.498 32.498 0 0 0 48.265 24.609 32.5 32.5 0 0 0 15.457-36.561A32.5 32.5 0 0 0 85.5 118z" clip-rule="evenodd"/><path fill="#f5f5f7" fill-rule="evenodd" d="M199.5 176c14.083 0 25.5-11.417 25.5-25.5S213.583 125 199.5 125 174 136.417 174 150.5s11.417 25.5 25.5 25.5m0 7c17.949 0 32.5-14.551 32.5-32.5S217.449 118 199.5 118 167 132.551 167 150.5s14.551 32.5 32.5 32.5" clip-rule="evenodd"/><path fill="#2160fd" fill-rule="evenodd" d="m184.762 171.323-4.038 5.705a32.5 32.5 0 0 0 29.106 4.287 32.5 32.5 0 0 0 21.746-36.048A32.5 32.5 0 0 0 199.5 118v6.99a25.511 25.511 0 0 1 18.178 43.408 25.52 25.52 0 0 1-21.895 7.34 25.5 25.5 0 0 1-11.019-4.414z" clip-rule="evenodd"/><path fill="#f5f5f7" fill-rule="evenodd" d="M314.5 176c14.083 0 25.5-11.417 25.5-25.5S328.583 125 314.5 125 289 136.417 289 150.5s11.417 25.5 25.5 25.5m0 7c17.949 0 32.5-14.551 32.5-32.5S332.449 118 314.5 118 282 132.551 282 150.5s14.551 32.5 32.5 32.5" clip-rule="evenodd"/><path fill="#2160fd" fill-rule="evenodd" d="M321.5 118.763a32.5 32.5 0 0 0-7-.763v6.99a25.51 25.51 0 0 1 25.51 25.51H347a32.5 32.5 0 0 0-2.474-12.437 32.5 32.5 0 0 0-23.026-19.3" clip-rule="evenodd"/></g><defs><clipPath id="clip0_9781_42491"><path fill="#fff" d="M0 0h400v300H0z"/></clipPath><pattern id="pattern0_9781_42491" width=".037" height=".049" patternContentUnits="objectBoundingBox"><use xlink:href="#image0_9781_42491" transform="scale(.00066 .00088)"/></pattern><image xlink:href="data:image/png;base64,iVBORw0KGgoAAAANSUhEUgAAADgAAAA4CAYAAACohjseAAAACXBIWXMAACxLAAAsSwGlPZapAAAAAXNSR0IArs4c6QAAAARnQU1BAACxjwv8YQUAAADdSURBVHgB7dmxDoMgFIXhCzEmbsbF9388F8PGAKHt6dSksvXaHHK+EQbzB0Sj4fFiA4s2OAWyUyA7BbJTIDsFslMgOwWyUyA7BbJTIDsFspvsBrVWO8/TSinWWrNlWWxdV5sm/8sH7w+/iDuO4x32KcZo+767R7pv0ZTSVxxgDKvqzT0w59ydw5b15h4YQujOXa3sr7kHzvPcncNh4809cNu2y1XEGE5Sb+GO32c4SXHY4H5EGFYV4UM8Jv5Nr2rsFMhOgewUyE6B7BTIToHsFMhOgewUyE6B7IYPfALcB0NZ5j6jXgAAAABJRU5ErkJggg==" id="image0_9781_42491" width="56" height="56" preserveAspectRatio="none"/></defs></svg>

<svg width="400" height="300" viewBox="0 0 400 300" fill="none" xmlns="http://www.w3.org/2000/svg" xmlns:xlink="http://www.w3.org/1999/xlink">
<g clip-path="url(#clip0_9781_42491)">
<rect width="400" height="300" fill="white"/>
<g style="mix-blend-mode:darken">
<path d="M0 4.21053C0 1.88512 1.88512 0 4.21053 0H395.789C398.115 0 400 1.88512 400 4.21053V295.789C400 298.115 398.115 300 395.789 300H4.21054C1.88513 300 0 298.115 0 295.789V4.21053Z" fill="url(#pattern0_9781_42491)"/>
</g>
<path fill-rule="evenodd" clip-rule="evenodd" d="M85.5 176C99.5833 176 111 164.583 111 150.5C111 136.417 99.5833 125 85.5 125C71.4167 125 60 136.417 60 150.5C60 164.583 71.4167 176 85.5 176ZM85.5 183C103.449 183 118 168.449 118 150.5C118 132.551 103.449 118 85.5 118C67.5507 118 53 132.551 53 150.5C53 168.449 67.5507 183 85.5 183Z" fill="#F5F5F7"/>
<path fill-rule="evenodd" clip-rule="evenodd" d="M85.5 124.99C91.137 124.99 96.6152 126.857 101.079 130.299C105.543 133.742 108.74 138.565 110.173 144.017C111.605 149.469 111.192 155.242 108.997 160.434C106.802 165.626 102.949 169.945 98.0398 172.716C93.1309 175.486 87.4425 176.553 81.8632 175.75C76.2838 174.946 71.1278 172.317 67.2004 168.274C63.273 164.23 60.7956 158.999 60.155 153.399C59.5144 147.799 60.7468 142.144 63.6596 137.318L57.6755 133.706C56.4516 135.734 55.4607 137.876 54.7113 140.093C53.1885 144.598 52.6636 149.411 53.2106 154.193C54.0267 161.328 57.183 167.992 62.1864 173.143C67.1898 178.295 73.7586 181.644 80.8667 182.668C87.9748 183.692 95.2218 182.333 101.476 178.802C107.73 175.272 112.638 169.77 115.435 163.156C118.231 156.541 118.758 149.187 116.933 142.241C115.108 135.295 111.034 129.15 105.347 124.764C101.536 121.825 97.1442 119.787 92.5 118.763C90.2148 118.259 87.8684 118 85.5 118V124.99Z" fill="#2160FD"/>
<path fill-rule="evenodd" clip-rule="evenodd" d="M199.5 176C213.583 176 225 164.583 225 150.5C225 136.417 213.583 125 199.5 125C185.417 125 174 136.417 174 150.5C174 164.583 185.417 176 199.5 176ZM199.5 183C217.449 183 232 168.449 232 150.5C232 132.551 217.449 118 199.5 118C181.551 118 167 132.551 167 150.5C167 168.449 181.551 183 199.5 183Z" fill="#F5F5F7"/>
<path fill-rule="evenodd" clip-rule="evenodd" d="M184.762 171.323L180.724 177.028C182.652 178.392 184.717 179.538 186.878 180.449C189.395 181.51 192.044 182.252 194.764 182.653C199.821 183.398 204.983 182.939 209.83 181.315C214.676 179.69 219.072 176.945 222.658 173.302C226.245 169.66 228.921 165.223 230.471 160.351C232.02 155.48 232.399 150.312 231.576 145.267C230.753 140.222 228.751 135.442 225.734 131.316C222.716 127.189 218.768 123.833 214.21 121.519C211.758 120.275 209.167 119.351 206.5 118.763C204.209 118.257 201.862 118 199.5 118V124.99C203.512 124.99 207.468 125.936 211.046 127.752C214.624 129.568 217.723 132.203 220.092 135.442C222.46 138.68 224.031 142.432 224.677 146.392C225.323 150.352 225.026 154.409 223.81 158.233C222.594 162.056 220.493 165.539 217.678 168.398C214.862 171.257 211.412 173.412 207.608 174.687C203.804 175.963 199.752 176.323 195.783 175.738C191.814 175.153 188.039 173.641 184.764 171.324C184.764 171.324 184.763 171.323 184.762 171.323Z" fill="#2160FD"/>
<path fill-rule="evenodd" clip-rule="evenodd" d="M314.5 176C328.583 176 340 164.583 340 150.5C340 136.417 328.583 125 314.5 125C300.417 125 289 136.417 289 150.5C289 164.583 300.417 176 314.5 176ZM314.5 183C332.449 183 347 168.449 347 150.5C347 132.551 332.449 118 314.5 118C296.551 118 282 132.551 282 150.5C282 168.449 296.551 183 314.5 183Z" fill="#F5F5F7"/>
<path fill-rule="evenodd" clip-rule="evenodd" d="M321.5 118.763C319.207 118.257 316.86 118 314.5 118V124.99C317.85 124.99 321.167 125.65 324.262 126.932C327.357 128.214 330.17 130.093 332.539 132.461C334.907 134.83 336.786 137.643 338.068 140.738C339.35 143.833 340.01 147.15 340.01 150.5H347C347 148.14 346.743 145.793 346.237 143.5C345.828 141.645 345.256 139.826 344.526 138.063C342.893 134.12 340.499 130.537 337.481 127.519C334.463 124.501 330.88 122.107 326.937 120.474C325.174 119.744 323.355 119.172 321.5 118.763Z" fill="#2160FD"/>
</g>
<defs>
<pattern id="pattern0_9781_42491" patternContentUnits="objectBoundingBox" width="0.0368421" height="0.0491228">
<use xlink:href="#image0_9781_42491" transform="scale(0.000657895 0.000877193)"/>
</pattern>
<clipPath id="clip0_9781_42491">
<rect width="400" height="300" fill="white"/>
</clipPath>
<image id="image0_9781_42491" width="56" height="56" preserveAspectRatio="none" xlink:href="data:image/png;base64,iVBORw0KGgoAAAANSUhEUgAAADgAAAA4CAYAAACohjseAAAACXBIWXMAACxLAAAsSwGlPZapAAAAAXNSR0IArs4c6QAAAARnQU1BAACxjwv8YQUAAADdSURBVHgB7dmxDoMgFIXhCzEmbsbF9388F8PGAKHt6dSksvXaHHK+EQbzB0Sj4fFiA4s2OAWyUyA7BbJTIDsFslMgOwWyUyA7BbJTIDsFspvsBrVWO8/TSinWWrNlWWxdV5sm/8sH7w+/iDuO4x32KcZo+767R7pv0ZTSVxxgDKvqzT0w59ydw5b15h4YQujOXa3sr7kHzvPcncNh4809cNu2y1XEGE5Sb+GO32c4SXHY4H5EGFYV4UM8Jv5Nr2rsFMhOgewUyE6B7BTIToHsFMhOgewUyE6B7IYPfALcB0NZ5j6jXgAAAABJRU5ErkJggg=="/>
</defs>
</svg>
